tools/download-figma-icons/icons/solid/connector-schuko.svg

<svg width="24" height="24" viewBox="0 0 24 24" fill="none" xmlns="http://www.w3.org/2000/svg">
<path d="M23.25 8.99198H21.75V7.0142C21.75 6.89388 21.72 6.77356 21.6675 6.66828C19.9125 3.2241 16.545 1.00568 12.75 0.75V2.97594C12.75 3.38954 12.4125 3.72794 12 3.72794C11.5875 3.72794 11.25 3.38954 11.25 2.97594V0.75C7.455 1.00568 4.0875 3.2241 2.3325 6.66828C2.28 6.77356 2.25 6.89388 2.25 7.0142V8.99198H0.75C0.3375 8.99198 0 9.33038 0 9.74398V14.256C0 14.6696 0.3375 15.008 0.75 15.008H2.25V16.9858C2.25 17.1061 2.28 17.2264 2.3325 17.3317C4.0875 20.7834 7.47 23.0018 11.265 23.25C11.2575 23.2049 11.25 23.1447 11.25 23.0921V21.0241C11.25 20.6105 11.5875 20.2721 12 20.2721C12.4125 20.2721 12.75 20.6105 12.75 21.0241V23.0921C12.75 23.1447 12.7425 23.2049 12.735 23.25C16.53 23.0018 19.9125 20.7834 21.6675 17.3317C21.72 17.2264 21.75 17.1061 21.75 16.9858V15.008H23.25C23.6625 15.008 24 14.6696 24 14.256V9.74398C24 9.33038 23.6625 8.99198 23.25 8.99198ZM7.5 14.256C6.255 14.256 5.25 13.2483 5.25 12C5.25 10.7517 6.255 9.74398 7.5 9.74398C8.745 9.74398 9.75 10.7517 9.75 12C9.75 13.2483 8.745 14.256 7.5 14.256ZM16.5 14.256C15.255 14.256 14.25 13.2483 14.25 12C14.25 10.7517 15.255 9.74398 16.5 9.74398C17.745 9.74398 18.75 10.7517 18.75 12C18.75 13.2483 17.745 14.256 16.5 14.256Z" fill="black"/>
</svg>

<svg xmlns="http://www.w3.org/2000/svg" width="24" height="24" fill="none" viewBox="0 0 24 24"><path fill="currentColor" d="M23.25 8.992h-1.5V7.014c0-.12-.03-.24-.082-.346C19.913 3.224 16.545 1.006 12.75.75v2.226a.753.753 0 0 1-.75.752.753.753 0 0 1-.75-.752V.75c-3.795.256-7.162 2.474-8.917 5.918a.8.8 0 0 0-.083.346v1.978H.75a.753.753 0 0 0-.75.752v4.512c0 .414.338.752.75.752h1.5v1.978c0 .12.03.24.083.346 1.755 3.451 5.137 5.67 8.932 5.918a1 1 0 0 1-.015-.158v-2.068c0-.414.338-.752.75-.752s.75.338.75.752v2.068c0 .053-.008.113-.015.158 3.795-.248 7.178-2.467 8.933-5.918a.8.8 0 0 0 .082-.346v-1.978h1.5c.413 0 .75-.338.75-.752V9.744a.753.753 0 0 0-.75-.752M7.5 14.256A2.25 2.25 0 0 1 5.25 12a2.25 2.25 0 1 1 4.5 0 2.25 2.25 0 0 1-2.25 2.256m9 0A2.25 2.25 0 0 1 14.25 12a2.25 2.25 0 1 1 4.5 0 2.25 2.25 0 0 1-2.25 2.256"/></svg>
